.files/icons/devices/Keyboard.svg

<svg fill="none" height="48" viewBox="0 0 48 48" width="48" xmlns="http://www.w3.org/2000/svg"><g fill="#000"><path d="m23.8974 16.6325-3.7947-1.265c1.5294-4.5882 3.9827-7.45039 7.4123-8.30779 1.7856-.44641 4.485-3.32069 4.485-5.05971h4c0 3.59431-3.9672 8.0534-7.5149 8.9403-1.9038.4759-3.4505 2.2804-4.5877 5.6922z" opacity=".3"/><path clip-rule="evenodd" d="m2 16c0-1.1046.89543-2 2-2h40c1.1046 0 2 .8954 2 2v24c0 1.1046-.8954 2-2 2h-40c-1.10457 0-2-.8954-2-2zm12 2.5c0-.2761.2239-.5.5-.5h3c.2761 0 .5.2239.5.5v3c0 .2761-.2239.5-.5.5h-3c-.2761 0-.5-.2239-.5-.5zm-7.5-.5c-.27614 0-.5.2239-.5.5v3c0 .2761.22386.5.5.5h3c.27614 0 .5-.2239.5-.5v-3c0-.2761-.22386-.5-.5-.5zm3.5 8.5c0-.2761.2239-.5.5-.5h3c.2761 0 .5.2239.5.5v3c0 .2761-.2239.5-.5.5h-3c-.2761 0-.5-.2239-.5-.5zm8.5-.5c-.2761 0-.5.2239-.5.5v3c0 .2761.2239.5.5.5h3c.2761 0 .5-.2239.5-.5v-3c0-.2761-.2239-.5-.5-.5zm7.5.5c0-.2761.2239-.5.5-.5h3c.2761 0 .5.2239.5.5v3c0 .2761-.2239.5-.5.5h-3c-.2761 0-.5-.2239-.5-.5zm8.5-.5c-.2761 0-.5.2239-.5.5v3c0 .2761.2239.5.5.5h3c.2761 0 .5-.2239.5-.5v-3c0-.2761-.2239-.5-.5-.5zm-12.5-7.5c0-.2761.2239-.5.5-.5h3c.2761 0 .5.2239.5.5v3c0 .2761-.2239.5-.5.5h-3c-.2761 0-.5-.2239-.5-.5zm-11.5 15.5c-.2761 0-.5.2239-.5.5v3c0 .2761.2239.5.5.5h27c.2761 0 .5-.2239.5-.5v-3c0-.2761-.2239-.5-.5-.5zm19.5-15.5c0-.2761.2239-.5.5-.5h3c.2761 0 .5.2239.5.5v3c0 .2761-.2239.5-.5.5h-3c-.2761 0-.5-.2239-.5-.5zm8.5-.5c-.2761 0-.5.2239-.5.5v3c0 .2761.2239.5.5.5h3c.2761 0 .5-.2239.5-.5v-3c0-.2761-.2239-.5-.5-.5z" fill-rule="evenodd"/></g></svg>

<svg width="48" height="48" viewBox="0 0 48 48" fill="none" xmlns="http://www.w3.org/2000/svg">
<path opacity="0.3" d="M23.8974 16.6325L20.1027 15.3675C21.6321 10.7793 24.0854 7.91711 27.515 7.05971C29.3006 6.6133 32 3.73902 32 2H36C36 5.59431 32.0328 10.0534 28.4851 10.9403C26.5813 11.4162 25.0346 13.2207 23.8974 16.6325Z" fill="black"/>
<path fill-rule="evenodd" clip-rule="evenodd" d="M2 16C2 14.8954 2.89543 14 4 14H44C45.1046 14 46 14.8954 46 16V40C46 41.1046 45.1046 42 44 42H4C2.89543 42 2 41.1046 2 40V16ZM14 18.5C14 18.2239 14.2239 18 14.5 18H17.5C17.7761 18 18 18.2239 18 18.5V21.5C18 21.7761 17.7761 22 17.5 22H14.5C14.2239 22 14 21.7761 14 21.5V18.5ZM6.5 18C6.22386 18 6 18.2239 6 18.5V21.5C6 21.7761 6.22386 22 6.5 22H9.5C9.77614 22 10 21.7761 10 21.5V18.5C10 18.2239 9.77614 18 9.5 18H6.5ZM10 26.5C10 26.2239 10.2239 26 10.5 26H13.5C13.7761 26 14 26.2239 14 26.5V29.5C14 29.7761 13.7761 30 13.5 30H10.5C10.2239 30 10 29.7761 10 29.5V26.5ZM18.5 26C18.2239 26 18 26.2239 18 26.5V29.5C18 29.7761 18.2239 30 18.5 30H21.5C21.7761 30 22 29.7761 22 29.5V26.5C22 26.2239 21.7761 26 21.5 26H18.5ZM26 26.5C26 26.2239 26.2239 26 26.5 26H29.5C29.7761 26 30 26.2239 30 26.5V29.5C30 29.7761 29.7761 30 29.5 30H26.5C26.2239 30 26 29.7761 26 29.5V26.5ZM34.5 26C34.2239 26 34 26.2239 34 26.5V29.5C34 29.7761 34.2239 30 34.5 30H37.5C37.7761 30 38 29.7761 38 29.5V26.5C38 26.2239 37.7761 26 37.5 26H34.5ZM22 18.5C22 18.2239 22.2239 18 22.5 18H25.5C25.7761 18 26 18.2239 26 18.5V21.5C26 21.7761 25.7761 22 25.5 22H22.5C22.2239 22 22 21.7761 22 21.5V18.5ZM10.5 34C10.2239 34 10 34.2239 10 34.5V37.5C10 37.7761 10.2239 38 10.5 38H37.5C37.7761 38 38 37.7761 38 37.5V34.5C38 34.2239 37.7761 34 37.5 34H10.5ZM30 18.5C30 18.2239 30.2239 18 30.5 18H33.5C33.7761 18 34 18.2239 34 18.5V21.5C34 21.7761 33.7761 22 33.5 22H30.5C30.2239 22 30 21.7761 30 21.5V18.5ZM38.5 18C38.2239 18 38 18.2239 38 18.5V21.5C38 21.7761 38.2239 22 38.5 22H41.5C41.7761 22 42 21.7761 42 21.5V18.5C42 18.2239 41.7761 18 41.5 18H38.5Z" fill="black"/>
</svg>
